X:230
T: LAET ONS TSAAM IN VRIENDSCHAP LEVEN
N: B0717
O: Europa, Mitteleuropa, flaemisch
R: Freimaurer - Lied
M: 4/4
L: 1/8
K: G
GABc | d2cBe2e2 | e2d2
c2cA | B2BGA2A=F | G4
GABc | d2cBe2e2 | e2d2
c2cA | B2BGA2A=F | G4
d2dB | c2cAB2BG | A2D2
d2dB | c2cAB2BG | A2D2
GABc | d2cBc2g2 | d4-dede | d4
c2cA | B2BGA2AF | G4

